!!!!SEGMENT: pl-wtm--r-704-m--001-003_moniuszko-stanislaw--widma-no-1-naprzod-wy.krn
!!!cenid: 18xx:3059
!!!COM: Moniuszko, Stanisław
!!!COM-rismID: pe30008351
!!!CDT: 1819/05/05-1872/06/04
!!!CNT: Polish
!!!OPR: Widma
!!!OTL: No. 1 – Naprzód wy
!!!OMV: 003
!!!PDT: 1852
!!!AGN: Secular
!!!YEC: Copyright 2022 Narodowy Instytut Fryderyka Chopina (https://polishscores.org)
!!!YEM: License CC-BY-4.0 (https://creativecommons.org/licenses/by/4.0)
!!!SMS-siglum: PL-Wtm
!!!SMS-shelfmark: R 704/M
!!!SMS-shelfwork: 001-003 M
!!!SMS-variant:
!!!SMS-altvar:
!!!NIFC-rismSourceID: 1001093778
!!!NIFC-rismChildID: 1001093778
!!!NIFC-islandoraID:
!!!URL-pdf-islandora:
!!!URL-scan:
!!!IIIF:
!!!ONB-nifc: UWAGA: skany 0007 (prawa strona) – 0008. Nie wpisywać tekstu rosyjskiego i samodzielnych dialogów poza krótkimi didaskaliami.
!!!AIN: 7 empty
!!!key:
**kern	**kern	**dynam	**kern	**text	**dynam	**kern	**text	**dynam	**kern	**text	**text	**dynam	**kern	**text	**text	**dynam	**kern	**text	**text
*part7	*part6	*	*part5	*	*	*part4	*	*	*part3	*	*	*	*part2	*	*	*	*part1	*	*
*staff7	*staff6	*	*staff5	*	*	*staff4	*	*	*staff3	*	*	*	*staff2	*	*	*	*staff1	*	*
*Iempty	*Iempty	*	*Iempty	*	*	*Iempty	*	*	*Iempty	*	*	*	*Iempty	*	*	*	*Iempty	*	*
*I"Forte-Piano.	*I"Forte-Piano.	*	*I"Chór!	*	*	*I"Chór!	*	*	*I"Chór!	*	*	*	*I"Chór!	*	*	*	*I"Guślarz.	*	*
*clefF4	*clefG2	*	*clefF4	*	*	*clefG2	*	*	*clefG2	*	*	*	*clefG2	*	*	*	*clefF4	*	*
*	*	*	*	*	*	*Trd0c0	*	*	*	*	*	*	*	*	*	*	*	*	*
*k[f#c#]	*k[f#c#]	*	*k[f#c#]	*	*	*k[f#c#]	*	*	*k[f#c#]	*	*	*	*k[f#c#]	*	*	*	*k[f#c#]	*	*
*D:	*D:	*	*D:	*	*	*D:	*	*	*D:	*	*	*	*D:	*	*	*	*D:	*	*
*M4/4	*M4/4	*	*M4/4	*	*	*M4/4	*	*	*M4/4	*	*	*	*M4/4	*	*	*	*M4/4	*	*
*met(c)	*met(c)	*	*met(c)	*	*	*met(c)	*	*	*met(c)	*	*	*	*met(c)	*	*	*	*met(c)	*	*
=1	=1	=1	=1	=1	=1	=1	=1	=1	=1	=1	=1	=1	=1	=1	=1	=1	=1	=1	=1
!	!	!	!	!	!	!	!	!	!	!	!	!	!	!	!	!	!LO:TX:a:t=Lento	!	!
!	!	!	!	!	!	!	!	!	!	!	!	!	!	!	!	!	!LO:TX:a:t=Recit&colon;	!	!
!	!	!	!	!	!	!	!	!	!	!	!	!	!	!	!	!	!LO:TX:a:t=Guślarz.	!	!
[1FFn [1Cn [1A	1r	fp	1ryy	.	.	1ryy	.	.	1ryy	.	.	.	1ryy	.	.	.	2r	.	.
.	.	.	.	.	.	.	.	.	.	.	.	.	.	.	.	.	4.cn\	Na-	Voi
.	.	.	.	.	.	.	.	.	.	.	.	.	.	.	.	.	8A\	-przód	per
=2	=2	=2	=2	=2	=2	=2	=2	=2	=2	=2	=2	=2	=2	=2	=2	=2	=2	=2	=2
1FF_ 1C_ 1A_	1r	.	1ryy	.	.	1ryy	.	.	1ryy	.	.	.	1ryy	.	.	.	4.Fn\	wy	pri-
.	.	.	.	.	.	.	.	.	.	.	.	.	.	.	.	.	8Cn/	z lek-	-me
.	.	.	.	.	.	.	.	.	.	.	.	.	.	.	.	.	4F\	-kié-	alme
.	.	.	.	.	.	.	.	.	.	.	.	.	.	.	.	.	4A\	-mi	fu-
=3	=3	=3	=3	=3	=3	=3	=3	=3	=3	=3	=3	=3	=3	=3	=3	=3	=3	=3	=3
1FF_ 1C_ 1A_	1r	.	1ryy	.	.	1ryy	.	.	1ryy	.	.	.	1ryy	.	.	.	2G\	du-	-ga-
.	.	.	.	.	.	.	.	.	.	.	.	.	.	.	.	.	8Fn\	-chy,	-ci,
.	.	.	.	.	.	.	.	.	.	.	.	.	.	.	.	.	8r	.	.
.	.	.	.	.	.	.	.	.	.	.	.	.	.	.	.	.	8F\	coś-	cui
.	.	.	.	.	.	.	.	.	.	.	.	.	.	.	.	.	8G\	-cie	l'ef-
=4	=4	=4	=4	=4	=4	=4	=4	=4	=4	=4	=4	=4	=4	=4	=4	=4	=4	=4	=4
1FF] 1C] 1A]	1r	.	1ryy	.	.	1ryy	.	.	1ryy	.	.	.	1ryy	.	.	.	4A\	śród	-fi-
.	.	.	.	.	.	.	.	.	.	.	.	.	.	.	.	.	2cn\	te-	-me-
.	.	.	.	.	.	.	.	.	.	.	.	.	.	.	.	.	8d\	-go	-no
.	.	.	.	.	.	.	.	.	.	.	.	.	.	.	.	.	8e-X\	pa-	sog-
!!linebreak:original
=5	=5	=5	=5	=5	=5	=5	=5	=5	=5	=5	=5	=5	=5	=5	=5	=5	=5	=5	=5
[1FF#X [1D [1A	1r	.	1ryy	.	.	1ryy	.	.	1ryy	.	.	.	1ryy	.	.	.	2d\	-do-	-gior-
.	.	.	.	.	.	.	.	.	.	.	.	.	.	.	.	.	4A\	-łu	-no
.	.	.	.	.	.	.	.	.	.	.	.	.	.	.	.	.	8r	.	.
.	.	.	.	.	.	.	.	.	.	.	.	.	.	.	.	.	8A\	ciem-	in
=6	=6	=6	=6	=6	=6	=6	=6	=6	=6	=6	=6	=6	=6	=6	=6	=6	=6	=6	=6
1FF#_ 1D_ 1A_	1r	.	1ryy	.	.	1ryy	.	.	1ryy	.	.	.	1ryy	.	.	.	2A\	-no-	gu-
.	.	.	.	.	.	.	.	.	.	.	.	.	.	.	.	.	8F#X\	-ty	-esta
.	.	.	.	.	.	.	.	.	.	.	.	.	.	.	.	.	8G\	i	val-
.	.	.	.	.	.	.	.	.	.	.	.	.	.	.	.	.	8A\	za-	-le
.	.	.	.	.	.	.	.	.	.	.	.	.	.	.	.	.	8F#\	-wie-	di
=7	=7	=7	=7	=7	=7	=7	=7	=7	=7	=7	=7	=7	=7	=7	=7	=7	=7	=7	=7
2FF#/] 2D] 2A]	1r	.	1ryy	.	.	1ryy	.	.	1ryy	.	.	.	1ryy	.	.	.	8.D\	-ru-	pian-
.	.	.	.	.	.	.	.	.	.	.	.	.	.	.	.	.	16D\	-chy,	-to,
.	.	.	.	.	.	.	.	.	.	.	.	.	.	.	.	.	8.F#X\	nę-	di
.	.	.	.	.	.	.	.	.	.	.	.	.	.	.	.	.	16G\	-dzy,	tri-
2r	.	.	.	.	.	.	.	.	.	.	.	.	.	.	.	.	8.A\	pła-	-stez-
.	.	.	.	.	.	.	.	.	.	.	.	.	.	.	.	.	16A\	-czu	-za,
.	.	.	.	.	.	.	.	.	.	.	.	.	.	.	.	.	8.B\	i	duol
.	.	.	.	.	.	.	.	.	.	.	.	.	.	.	.	.	16cn\	mo-	e
=8	=8	=8	=8	=8	=8	=8	=8	=8	=8	=8	=8	=8	=8	=8	=8	=8	=8	=8	=8
2r	1r	.	1ryy	.	.	1ryy	.	.	1ryy	.	.	.	1ryy	.	.	.	4cn\	-zo-	scor-
.	.	.	.	.	.	.	.	.	.	.	.	.	.	.	.	.	4Bn\	-łu,	-no,
4GG:/ 4D: 4Bn:	.	.	.	.	.	.	.	.	.	.	.	.	.	.	.	.	4r	.	.
4r	.	.	.	.	.	.	.	.	.	.	.	.	.	.	.	.	8G\	za-	sol
.	.	.	.	.	.	.	.	.	.	.	.	.	.	.	.	.	8B\	-błys-	con-
!!linebreak:original
=9	=9	=9	=9	=9	=9	=9	=9	=9	=9	=9	=9	=9	=9	=9	=9	=9	=9	=9	=9
4r	1r	>]	1ryy	.	.	1ryy	.	.	1ryy	.	.	.	1ryy	.	.	.	(4.A\	-nę-	-ces-
4CC#X/ 4AA [4E	.	.	.	.	.	.	.	.	.	.	.	.	.	.	.	.	.	.	.
.	.	.	.	.	.	.	.	.	.	.	.	.	.	.	.	.	16G\LL	.	.
.	.	.	.	.	.	.	.	.	.	.	.	.	.	.	.	.	16F#X\JJ	.	.
([2DD/ 2GG 2BBn 2E_	.	.	.	.	.	.	.	.	.	.	.	.	.	.	.	.	8E\)	-li	-se
.	.	.	.	.	.	.	.	.	.	.	.	.	.	.	.	.	8r	.	.
.	.	.	.	.	.	.	.	.	.	.	.	.	.	.	.	.	8G\	i	d'ap-
.	.	.	.	.	.	.	.	.	.	.	.	.	.	.	.	.	8Bn\	spło-	-pa-
=10	=10	=10	=10	=10	=10	=10	=10	=10	=10	=10	=10	=10	=10	=10	=10	=10	=10	=10	=10
*^	*	*	*	*	*	*	*	*	*	*	*	*	*	*	*	*	*	*	*
[2AA;/) 2E_	(4DD\]	1r	.	1ryy	.	.	1ryy	.	.	1ryy	.	.	.	1ryy	.	.	.	8.A;\	-nę-	-ri-
.	.	.	.	.	.	.	.	.	.	.	.	.	.	.	.	.	.	16E\	-li,	-re
.	(2.CC#X\)	.	.	.	.	.	.	.	.	.	.	.	.	.	.	.	.	8E\	ja-	quol
.	.	.	.	.	.	.	.	.	.	.	.	.	.	.	.	.	.	8F#X\	-ko	fuo-
2AA/] 2E]	.	.	.	.	.	.	.	.	.	.	.	.	.	.	.	.	.	8G\	ta	-co
.	.	.	.	.	.	.	.	.	.	.	.	.	.	.	.	.	.	4A\	gar-	fa-
.	.	.	.	.	.	.	.	.	.	.	.	.	.	.	.	.	.	16E\	-stka	-tuo
.	.	.	.	.	.	.	.	.	.	.	.	.	.	.	.	.	.	16E\	ką-	e sou-
*v	*v	*	*	*	*	*	*	*	*	*	*	*	*	*	*	*	*	*	*	*
=11	=11	=11	=11	=11	=11	=11	=11	=11	=11	=11	=11	=11	=11	=11	=11	=11	=11	=11	=11
!	!	!	!	!	!	!	!	!	!	!	!	!	!	!	!	!	!LO:TX:a:t=a tempmo 1mo	!	!
(8DD'/L) 8AA 8D	1r	.	1ryy	.	.	1ryy	.	.	1ryy	.	.	.	1ryy	.	.	.	4G\	-dzie-	-ni-
8DD'/ 8AA 8D	.	.	.	.	.	.	.	.	.	.	.	.	.	.	.	.	.	.	.
8DD'/ 8AA 8D	.	.	.	.	.	.	.	.	.	.	.	.	.	.	.	.	4F#\	-li.	-vre
8DD'/J 8AA 8D	.	.	.	.	.	.	.	.	.	.	.	.	.	.	.	.	.	.	.
8DD'/L 8AA 8F#	.	.	.	.	.	.	.	.	.	.	.	.	.	.	.	.	4r	.	.
8DD'/ 8AA 8F#	.	.	.	.	.	.	.	.	.	.	.	.	.	.	.	.	.	.	.
8DD'/ 8AA 8F#	.	.	.	.	.	.	.	.	.	.	.	.	.	.	.	.	8F#\	Kto	Se
8DD'/J) 8AA 8F#	.	.	.	.	.	.	.	.	.	.	.	.	.	.	.	.	8G\	z was	mon
=12	=12	=12	=12	=12	=12	=12	=12	=12	=12	=12	=12	=12	=12	=12	=12	=12	=12	=12	=12
8FF#/L 8D 8A	[1d	.	1ryy	.	.	1ryy	.	.	1ryy	.	.	.	1ryy	.	.	.	4.A\	wie-	anco
8FF#/ 8D 8A	.	.	.	.	.	.	.	.	.	.	.	.	.	.	.	.	.	.	.
8FF#/ 8D 8A	.	.	.	.	.	.	.	.	.	.	.	.	.	.	.	.	.	.	.
8FF#/J 8D 8A	.	.	.	.	.	.	.	.	.	.	.	.	.	.	.	.	8D\	-trznym	in
8FF#/L 8D 8A#X	.	.	.	.	.	.	.	.	.	.	.	.	.	.	.	.	4.A#X\	bą-	ciel
8FF#/ 8D 8A#	.	.	.	.	.	.	.	.	.	.	.	.	.	.	.	.	.	.	.
8FF#/ 8D 8A#	.	.	.	.	.	.	.	.	.	.	.	.	.	.	.	.	.	.	.
8FF#/J 8D 8A#	.	.	.	.	.	.	.	.	.	.	.	.	.	.	.	.	8D\	-dzi	am-
!!linebreak:original
=13	=13	=13	=13	=13	=13	=13	=13	=13	=13	=13	=13	=13	=13	=13	=13	=13	=13	=13	=13
8GG\L 8D 8B	1d_	.	1ryy	.	.	1ryy	.	.	1ryy	.	.	.	1ryy	.	.	.	2B\	szla-	-mes-
8GG\ 8D 8B	.	.	.	.	.	.	.	.	.	.	.	.	.	.	.	.	.	.	.
8GG\ 8D 8B	.	.	.	.	.	.	.	.	.	.	.	.	.	.	.	.	.	.	.
8GG\J 8D 8B	.	.	.	.	.	.	.	.	.	.	.	.	.	.	.	.	.	.	.
8GG\L 8E 8B	.	.	.	.	.	.	.	.	.	.	.	.	.	.	.	.	4B\	-kiem,	-ze
8GG\ 8E 8B	.	.	.	.	.	.	.	.	.	.	.	.	.	.	.	.	.	.	.
8GG\ 8E 8B	.	.	.	.	.	.	.	.	.	.	.	.	.	.	.	.	8c#\L	w nie-	qui
8GG\J 8E 8B	.	.	.	.	.	.	.	.	.	.	.	.	.	.	.	.	8d\J	.	per
=14	=14	=14	=14	=14	=14	=14	=14	=14	=14	=14	=14	=14	=14	=14	=14	=14	=14	=14	=14
8GG\L 8E 8B	1d_	.	1ryy	.	.	1ryy	.	.	1ryy	.	.	.	1ryy	.	.	.	4e\	-bies-	l'ae-
8GG\ 8E 8B	.	.	.	.	.	.	.	.	.	.	.	.	.	.	.	.	.	.	.
8GG\ 8E 8B	.	.	.	.	.	.	.	.	.	.	.	.	.	.	.	.	8.B\	kie	-re
8GG\J 8E 8B	.	.	.	.	.	.	.	.	.	.	.	.	.	.	.	.	.	.	.
.	.	.	.	.	.	.	.	.	.	.	.	.	.	.	.	.	16B\	nie	.
8GG#X\L 8E 8B	.	.	.	.	.	.	.	.	.	.	.	.	.	.	.	.	4.e\	wzle-	vi
8GG#\ 8E 8B	.	.	.	.	.	.	.	.	.	.	.	.	.	.	.	.	.	.	.
8GG#\ 8E 8B	.	.	.	.	.	.	.	.	.	.	.	.	.	.	.	.	.	.	.
8GG#\J 8E 8B	.	.	.	.	.	.	.	.	.	.	.	.	.	.	.	.	8d\	-ciał	li-
=15	=15	=15	=15	=15	=15	=15	=15	=15	=15	=15	=15	=15	=15	=15	=15	=15	=15	=15	=15
8AA\L 8E 8A	8d/]	.	1ryy	.	.	1ryy	.	.	1ryy	.	.	.	1ryy	.	.	.	2d\	bra-	-bra-
8AA\ 8E 8A	8r	.	.	.	.	.	.	.	.	.	.	.	.	.	.	.	.	.	.
8AA\ 8E 8A	[2.e/ [2.gn	sf	.	.	.	.	.	.	.	.	.	.	.	.	.	.	.	.	.
8AA\J 8E 8A	.	.	.	.	.	.	.	.	.	.	.	.	.	.	.	.	.	.	.
8AA\L 8A	.	.	.	.	.	.	.	.	.	.	.	.	.	.	.	.	8c#\	-my,	-te,
8AA\ 8A	.	.	.	.	.	.	.	.	.	.	.	.	.	.	.	.	8r	.	.
8AA\ 8A	.	.	.	.	.	.	.	.	.	.	.	.	.	.	.	.	8.c#\	te-	ve-
!LO:TX:a:t=V&colon;S&colon;	!	!	!	!	!	!	!	!	!	!	!	!	!	!	!	!	!	!	!
8AA\J 8A	.	.	.	.	.	.	.	.	.	.	.	.	.	.	.	.	.	.	.
!	!	!	!	!	!	!	!	!	!	!	!	!	!	!	!	!	!LO:TX:a:t=V&colon; S&colon;	!	!
.	.	.	.	.	.	.	.	.	.	.	.	.	.	.	.	.	16c#\	-go	-vo
!!pagebreak:original
=16	=16	=16	=16	=16	=16	=16	=16	=16	=16	=16	=16	=16	=16	=16	=16	=16	=16	=16	=16
((2AA#X\ 2A#X	8c#'/L 8e] 8g]	.	1r	.	.	1r	.	.	1r	.	.	.	1r	.	.	.	2e\	[[my]]lek-	chia-
.	8c#'/ 8e 8g	.	.	.	.	.	.	.	.	.	.	.	.	.	.	.	.	.	.
.	8c#'/ 8e 8g	.	.	.	.	.	.	.	.	.	.	.	.	.	.	.	.	.	.
.	8c#'/J 8e 8g	.	.	.	.	.	.	.	.	.	.	.	.	.	.	.	.	.	.
8BB\)) 8B	8d'/L 8f#	.	.	.	.	.	.	.	.	.	.	.	.	.	.	.	8d\	-kim,	-mo,
8r	8d'/J 8f#	.	.	.	.	.	.	.	.	.	.	.	.	.	.	.	8r	.	.
4FF#/ 4F#	8d'/L 8a	.	.	.	.	.	.	.	.	.	.	.	.	.	.	.	8.A\	jas-	alme
.	8d'/J 8a	.	.	.	.	.	.	.	.	.	.	.	.	.	.	.	.	.	.
.	.	.	.	.	.	.	.	.	.	.	.	.	.	.	.	.	16A\	-nym	op-
=17	=17	=17	=17	=17	=17	=17	=17	=17	=17	=17	=17	=17	=17	=17	=17	=17	=17	=17	=17
((2FF#/ 2F#	8d#X'/L 8a 8ccn	.	1r	.	.	1r	.	.	1r	.	.	.	1r	.	.	.	2cn\	zna-	-pres-
.	8d#'/ 8a 8cc	.	.	.	.	.	.	.	.	.	.	.	.	.	.	.	.	.	.
.	8d#'/ 8a 8cc	.	.	.	.	.	.	.	.	.	.	.	.	.	.	.	.	.	.
.	8d#'/J 8a 8cc	.	.	.	.	.	.	.	.	.	.	.	.	.	.	.	.	.	.
8GG/)) 8G	8e'/L 8g 8b	.	.	.	.	.	.	.	.	.	.	.	.	.	.	.	8B\	-kiem	-se,
8r	8e'/J 8g 8b	.	.	.	.	.	.	.	.	.	.	.	.	.	.	.	8r	.	.
4DD#X/ 4D#X	8cn'/L 8f# 8a	.	.	.	.	.	.	.	.	.	.	.	.	.	.	.	8.F#\	przy-	am
.	8c'/J 8f# 8a	.	.	.	.	.	.	.	.	.	.	.	.	.	.	.	.	.	.
.	.	.	.	.	.	.	.	.	.	.	.	.	.	.	.	.	16F#\	-zy-	mio
=18	=18	=18	=18	=18	=18	=18	=18	=18	=18	=18	=18	=18	=18	=18	=18	=18	=18	=18	=18
4DD#X/ 4D#X	8B'/L 8f# 8a	.	1r	.	.	1r	.	.	1r	.	.	.	1r	.	.	.	4A\	-wa-	se-
.	8B'/J 8f# 8a	.	.	.	.	.	.	.	.	.	.	.	.	.	.	.	.	.	.
4EE/ 4E	8B'/L 8e 8g	.	.	.	.	.	.	.	.	.	.	.	.	.	.	.	4G\	-my,	-gno
.	8B'/J 8e 8g	.	.	.	.	.	.	.	.	.	.	.	.	.	.	.	.	.	.
4AA/	8A/L 8c# 8e	.	.	.	.	.	.	.	.	.	.	.	.	.	.	.	4E\	za-	vi
.	8A/J 8c# 8e	.	.	.	.	.	.	.	.	.	.	.	.	.	.	.	.	.	.
4AA/	8G/L 8A 8c# 8e	.	.	.	.	.	.	.	.	.	.	.	.	.	.	.	4C#/	-kli-	mo-
.	8G/J 8A 8c# 8e	.	.	.	.	.	.	.	.	.	.	.	.	.	.	.	.	.	.
=19	=19	=19	=19	=19	=19	=19	=19	=19	=19	=19	=19	=19	=19	=19	=19	=19	=19	=19	=19
2DD/ 2D	8F#/L 8A 8d	.	2r	.	.	2r	.	.	2r	.	.	.	2r	.	.	.	2D\	-na-	-stra-
.	8F#/ 8A 8d	.	.	.	.	.	.	.	.	.	.	.	.	.	.	.	.	.	.
.	8F#/ 8A 8d	.	.	.	.	.	.	.	.	.	.	.	.	.	.	.	.	.	.
.	8F#/J 8A 8d	.	.	.	.	.	.	.	.	.	.	.	.	.	.	.	.	.	.
!	!	!LO:DY:a	!	!	!	!	!	!	!	!	!	!	!	!	!	!	!	!	!
2GG/	8G/L 8B 8d	<	4r	.	.	4r	.	.	4r	.	.	.	4r	.	.	.	4GG/	-my.	-te.
.	8G/ 8B 8d	.	.	.	.	.	.	.	.	.	.	.	.	.	.	.	.	.	.
!	!	!	!	!	!LO:DY:a	!	!	!LO:DY:a	!	!	!	!LO:DY:a	!	!	!	!LO:DY:a	!	!	!
.	8G/ 8B 8d	.	8G\	Mów-	mf	8b\	Mów-	mf	8d/	Mów-	.	mf	8b\	Mów-	che-	mf	4r	.	.
.	8G/J 8B 8d	[[	8G\	-cie	.	8b\	-cie	.	8d/	-cie	.	.	8b\	-cie	-vi	.	.	.	.
!!linebreak:original
=20	=20	=20	=20	=20	=20	=20	=20	=20	=20	=20	=20	=20	=20	=20	=20	=20	=20	=20	=20
!	!	!LO:DY:a	!	!	!	!	!	!	!	!	!	!	!	!	!	!	!	!	!
(2GG#X\ 2G#X	8B/L 8d 8fn	>	2G#X^\	ko-	.	2b^\	ko-	.	2fn^/	ko-	.	.	2dd^\	mun-	ko-	.	1r	.	.
.	8B/ 8d 8f	.	.	.	.	.	.	.	.	.	.	.	.	.	.	.	.	.	.
.	8B/ 8d 8f	.	.	.	.	.	.	.	.	.	.	.	.	.	.	.	.	.	.
.	8B/J 8d 8f	.	.	.	.	.	.	.	.	.	.	.	.	.	.	.	.	.	.
2AA\) 2A	8c#/L 8e	] <	8A\	-/mu	.	8cc#\	-/mu	.	8e/	-/mu	.	.	8cc#\	-ca,	-mu	.	.	.	.
.	8c#/ 8e	.	8r	.	.	8r	.	.	8r	.	.	.	8r	.	.	.	.	.	.
!	!	!	!	!	!LO:DY:a	!	!	!LO:DY:a	!	!	!	!LO:DY:a	!	!	!	!LO:DY:a	!	!	!
.	8c#/ 8e	.	8A\	cze-	<	8cc#\	cze-	<	8cc#\	cze-	.	<	8ee\	che	cze-	<	.	.	.
.	8c#/J 8e	[[	8A\	-go	[[	8ee\	-go	[[	8cc#\	-go	.	[[	8ee\	v'af-	-go	[[	.	.	.
=21	=21	=21	=21	=21	=21	=21	=21	=21	=21	=21	=21	=21	=21	=21	=21	=21	=21	=21	=21
!	!	!	!	!	!LO:DY:a	!	!	!LO:DY:a	!	!	!	!LO:DY:a	!	!	!	!LO:DY:a	!	!	!
((2AA#X\ 2A#X	8e'/L 8g 8cc#	>	2A#X\	bra-	>	2ee\	bra-	>	2cc#\	bra-	.	>	2gg\	-fran-	bra-	>	1r	.	.
.	8e'/ 8g 8cc#	.	.	.	.	.	.	.	.	.	.	.	.	.	.	.	.	.	.
.	8e'/ 8g 8cc#	.	.	.	.	.	.	.	.	.	.	.	.	.	.	.	.	.	.
.	8e'/J 8g 8cc#	.	.	.	.	.	.	.	.	.	.	.	.	.	.	.	.	.	.
4BB\)) 4B	8d'/L 8f# 8dd	]	8B\	-knie,	]	8dd\	-knie,	]	8dd\	-knie,	.	]	8ff#\	-ge?	-knie,	]	.	.	.
.	8d'/J 8f# 8dd	.	8r	.	.	8r	.	.	8r	.	.	.	8r	.	.	.	.	.	.
!	!	!	!	!	!LO:DY:a	!	!	!LO:DY:a	!	!	!	!LO:DY:a	!LO:TX:a:t=dolce	!	!	!LO:DY:a	!	!	!
4FF#\ 4F#	8d'/L 8a	p	8F#\	kto	p	8dd\	kto	p	8a/	kto	.	p	8dd\	kto	Di-	p	.	.	.
.	8d'/J 8a	.	8F#\	z was	.	8dd\	z was	.	8a/	z was	.	.	8cc#\	z was	-tea	.	.	.	.
=22	=22	=22	=22	=22	=22	=22	=22	=22	=22	=22	=22	=22	=22	=22	=22	=22	=22	=22	=22
*^	*	*	*	*	*	*	*	*	*	*	*	*	*	*	*	*	*	*	*
2GG\ 2G	2ryy	(8d'/L 8a 8cc#	.	4G\	pra-	.	4dd\	pra-	.	4a/	pra-	.	.	4cc#\	pra-	noi	.	1r	.	.
.	.	8d'/J 8a 8cc#	.	.	.	.	.	.	.	.	.	.	.	.	.	.	.	.	.	.
.	.	8d'/L 8g 8b	.	4GG/ 4G	-gnie,	.	4dd\	-gnie,	.	4g/	-gnie,	.	.	4b\	-gnie,	qual	.	.	.	.
.	.	8d'/J 8g 8b	.	.	.	.	.	.	.	.	.	.	.	.	.	.	.	.	.	.
4E/	2AA\	8c#'/L 8e 8g	.	4GG/ 4G	kto	.	4cc#\	kto	.	4e/	kto	.	.	4g/	kto	pe-	.	.	.	.
.	.	8c#'/J 8e 8g	.	.	.	.	.	.	.	.	.	.	.	.	.	.	.	.	.	.
4A/	.	8G'/L 8c# 8e	.	4GG/ 4G	z was	.	4cc#\	z was	.	4e/	z was	.	.	4e/	z was	-na	.	.	.	.
.	.	8G'/J) 8c# 8e	.	.	.	.	.	.	.	.	.	.	.	.	.	.	.	.	.	.
*v	*v	*	*	*	*	*	*	*	*	*	*	*	*	*	*	*	*	*	*	*
=23	=23	=23	=23	=23	=23	=23	=23	=23	=23	=23	=23	=23	=23	=23	=23	=23	=23	=23	=23
*	*	*	*^	*	*	*	*	*	*	*	*	*	*	*	*	*	*	*	*
!	!	!LO:DY:a	!	!	!	!	!	!	!	!	!	!	!	!	!	!	!	!	!	!
!	!LO:TX:t=P:problem=mixed beam	!LO:DY:a	!	!	!	!	!	!	!	!	!	!	!	!	!	!	!	!	!	!
4r	16F#/LL 16A	pp <	2F#/	2D\	ła/-	.	2dd\	ła/-	.	2d/	ła/-	.	.	2d/	ła-	v'an-	.	1r	.	.
.	16d/	.	.	.	.	.	.	.	.	.	.	.	.	.	.	.	.	.	.	.
.	16F#/ 16A	.	.	.	.	.	.	.	.	.	.	.	.	.	.	.	.	.	.	.
.	16d/	.	.	.	.	.	.	.	.	.	.	.	.	.	.	.	.	.	.	.
(8.DD\L 8.D	16F#/ 16A	.	.	.	.	.	.	.	.	.	.	.	.	.	.	.	.	.	.	.
.	16d/	.	.	.	.	.	.	.	.	.	.	.	.	.	.	.	.	.	.	.
.	16F#/ 16A	.	.	.	.	.	.	.	.	.	.	.	.	.	.	.	.	.	.	.
16EE\Jk 16E	16d/JJ	.	.	.	.	.	.	.	.	.	.	.	.	.	.	.	.	.	.	.
!	!LO:TX:t=P:problem=mixed beam	!	!	!	!	!	!	!	!	!	!	!	!	!	!	!	!	!	!	!
8FF#\) 8F#	16F#/LL 16A	.	8D/	8D\	-knie.	.	8d/	-knie.	.	8d/	-knie.	.	.	8d/	-knie.	-ge!	.	.	.	.
.	16d/	.	.	.	.	.	.	.	.	.	.	.	.	.	.	.	.	.	.	.
8r	16F#/ 16A	.	8r	8ryy	.	.	8r	.	.	8r	.	.	.	8r	.	.	.	.	.	.
.	16d/	.	.	.	.	.	.	.	.	.	.	.	.	.	.	.	.	.	.	.
!	!	!	!	!	!	!	!	!	!LO:DY:a	!	!	!	!	!	!	!	!LO:DY:a	!	!	!
8DD\ 8D	16F#/ 16A	.	4r	4ryy	.	.	8d/	Co	pp	4r	.	.	.	8d/	Co	Che	pp	.	.	.
.	16d/	.	.	.	.	.	.	.	.	.	.	.	.	.	.	.	.	.	.	.
8r	16F#/ 16A	.	.	.	.	.	8d/	to	.	.	.	.	.	8d/	to	vi	.	.	.	.
.	16d/JJ	[[	.	.	.	.	.	.	.	.	.	.	.	.	.	.	.	.	.	.
*	*	*	*v	*v	*	*	*	*	*	*	*	*	*	*	*	*	*	*	*	*
!!pagebreak:original
=24	=24	=24	=24	=24	=24	=24	=24	=24	=24	=24	=24	=24	=24	=24	=24	=24	=24	=24	=24
!	!LO:TX:t=P:problem=mixed beam	!LO:DY:a	!	!	!	!	!	!	!	!	!	!	!	!	!	!	!	!	!
(2GGG/ 2GG	16G/LL 16B-X	>	1r	.	.	1c#	bę-	.	1r	.	.	.	1c#	bę-	man-	.	1r	.	.
.	16e-X/	.	.	.	.	.	.	.	.	.	.	.	.	.	.	.	.	.	.
.	16G/ 16B-	.	.	.	.	.	.	.	.	.	.	.	.	.	.	.	.	.	.
.	16e-/	.	.	.	.	.	.	.	.	.	.	.	.	.	.	.	.	.	.
.	16G/ 16B-	.	.	.	.	.	.	.	.	.	.	.	.	.	.	.	.	.	.
.	16e-/	.	.	.	.	.	.	.	.	.	.	.	.	.	.	.	.	.	.
.	16G/ 16B-	.	.	.	.	.	.	.	.	.	.	.	.	.	.	.	.	.	.
.	16e-/JJ	.	.	.	.	.	.	.	.	.	.	.	.	.	.	.	.	.	.
!	!LO:TX:t=P:problem=mixed beam	!	!	!	!	!	!	!	!	!	!	!	!	!	!	!	!	!	!
2AAA/) 2AA	16G/LL 16A	.	.	.	.	.	.	.	.	.	.	.	.	.	.	.	.	.	.
.	16c#X/	.	.	.	.	.	.	.	.	.	.	.	.	.	.	.	.	.	.
.	16G/ 16A	.	.	.	.	.	.	.	.	.	.	.	.	.	.	.	.	.	.
.	16c#X/	.	.	.	.	.	.	.	.	.	.	.	.	.	.	.	.	.	.
.	16G/ 16A	.	.	.	.	.	.	.	.	.	.	.	.	.	.	.	.	.	.
.	16c#X/	.	.	.	.	.	.	.	.	.	.	.	.	.	.	.	.	.	.
.	16G/ 16A	]	.	.	.	.	.	.	.	.	.	.	.	.	.	.	.	.	.
.	16c#X/JJ	.	.	.	.	.	.	.	.	.	.	.	.	.	.	.	.	.	.
=25	=25	=25	=25	=25	=25	=25	=25	=25	=25	=25	=25	=25	=25	=25	=25	=25	=25	=25	=25
!	!LO:TX:t=P:problem=mixed beam	!	!	!	!	!	!	!	!	!	!	!	!	!	!	!	!	!	!
4r	16F#/LL 16A	.	2r	.	.	4d/	-dzie?	.	2r	.	.	.	4d/	-dzie!	-ca?	.	1r	.	.
.	16d/	.	.	.	.	.	.	.	.	.	.	.	.	.	.	.	.	.	.
.	16F#/ 16A	.	.	.	.	.	.	.	.	.	.	.	.	.	.	.	.	.	.
.	16d/	.	.	.	.	.	.	.	.	.	.	.	.	.	.	.	.	.	.
(8.FF#\L	16F#/ 16A	.	.	.	.	4r	.	.	.	.	.	.	4r	.	.	.	.	.	.
.	16d/	.	.	.	.	.	.	.	.	.	.	.	.	.	.	.	.	.	.
.	16F#/ 16A	.	.	.	.	.	.	.	.	.	.	.	.	.	.	.	.	.	.
16GG\Jk	16d/JJ	.	.	.	.	.	.	.	.	.	.	.	.	.	.	.	.	.	.
8AA\)	16A/LL 16d	<	4r	.	.	2r	.	.	4r	.	.	.	2r	.	.	.	.	.	.
.	16f#/	.	.	.	.	.	.	.	.	.	.	.	.	.	.	.	.	.	.
8r	16A/ 16d	.	.	.	.	.	.	.	.	.	.	.	.	.	.	.	.	.	.
.	16f#/	.	.	.	.	.	.	.	.	.	.	.	.	.	.	.	.	.	.
!	!	!	!	!	!LO:DY:a	!	!	!	!	!	!	!LO:DY:a	!	!	!	!	!	!	!
8DD\ 8D	16A/ 16d	.	8AA/	Co	pp	.	.	.	8A/	Co	che	pp	.	.	.	.	.	.	.
.	16f#/	.	.	.	.	.	.	.	.	.	.	.	.	.	.	.	.	.	.
8r	16A/ 16d	.	8AA/	to	.	.	.	.	8A/	to	v'af-	.	.	.	.	.	.	.	.
.	16f#/JJ	[[	.	.	.	.	.	.	.	.	.	.	.	.	.	.	.	.	.
=26	=26	=26	=26	=26	=26	=26	=26	=26	=26	=26	=26	=26	=26	=26	=26	=26	=26	=26	=26
(2CCn^\ 2Cn	16B-X/LL 16e	>	(2.BB-X/	bę-	.	1r	.	.	(2.B-X/	bę-	-fran-	.	1r	.	.	.	1r	.	.
.	16g/	.	.	.	.	.	.	.	.	.	.	.	.	.	.	.	.	.	.
.	16B-/ 16e	.	.	.	.	.	.	.	.	.	.	.	.	.	.	.	.	.	.
.	16g/	.	.	.	.	.	.	.	.	.	.	.	.	.	.	.	.	.	.
.	16B-/ 16e	.	.	.	.	.	.	.	.	.	.	.	.	.	.	.	.	.	.
.	16g/	.	.	.	.	.	.	.	.	.	.	.	.	.	.	.	.	.	.
.	16B-/ 16e	.	.	.	.	.	.	.	.	.	.	.	.	.	.	.	.	.	.
.	16g/	.	.	.	.	.	.	.	.	.	.	.	.	.	.	.	.	.	.
2CC#X\) 2C#X	16B-/ 16e	.	.	.	.	.	.	.	.	.	.	.	.	.	.	.	.	.	.
.	16g/	.	.	.	.	.	.	.	.	.	.	.	.	.	.	.	.	.	.
.	16B-/ 16e	.	.	.	.	.	.	.	.	.	.	.	.	.	.	.	.	.	.
.	16g/JJ	.	.	.	.	.	.	.	.	.	.	.	.	.	.	.	.	.	.
.	16A/LL 16e	]	4AA/)	.	.	.	.	.	4A/)	.	.	.	.	.	.	.	.	.	.
.	16g/	.	.	.	.	.	.	.	.	.	.	.	.	.	.	.	.	.	.
.	16A/ 16e	.	.	.	.	.	.	.	.	.	.	.	.	.	.	.	.	.	.
.	16g/JJ	.	.	.	.	.	.	.	.	.	.	.	.	.	.	.	.	.	.
!!linebreak:original
=27	=27	=27	=27	=27	=27	=27	=27	=27	=27	=27	=27	=27	=27	=27	=27	=27	=27	=27	=27
16DD/LL	(16A^/LL 16e	.	2AA/	-dzie!	.	1r	.	.	2A/	-dzie!	-ge?....	.	1r	.	.	.	1r	.	.
16D/	16f#/	.	.	.	.	.	.	.	.	.	.	.	.	.	.	.	.	.	.
16DD/	16A/ 16e	.	.	.	.	.	.	.	.	.	.	.	.	.	.	.	.	.	.
16D/	16f#/	.	.	.	.	.	.	.	.	.	.	.	.	.	.	.	.	.	.
16DD/	16A/ 16e	.	.	.	.	.	.	.	.	.	.	.	.	.	.	.	.	.	.
16D/	16f#/	.	.	.	.	.	.	.	.	.	.	.	.	.	.	.	.	.	.
16DD/	16A/ 16e	.	.	.	.	.	.	.	.	.	.	.	.	.	.	.	.	.	.
16D/JJ	16f#/JJ	.	.	.	.	.	.	.	.	.	.	.	.	.	.	.	.	.	.
16DD/LL	16A/LL 16d	.	2r	.	.	.	.	.	2r	.	.	.	.	.	.	.	.	.	.
16D/	16f#/	.	.	.	.	.	.	.	.	.	.	.	.	.	.	.	.	.	.
16DD/	16A/ 16d	.	.	.	.	.	.	.	.	.	.	.	.	.	.	.	.	.	.
16D/	16f#/JJ	.	.	.	.	.	.	.	.	.	.	.	.	.	.	.	.	.	.
16DD/	16A/LL 16B	.	.	.	.	.	.	.	.	.	.	.	.	.	.	.	.	.	.
16D/	16f#/	.	.	.	.	.	.	.	.	.	.	.	.	.	.	.	.	.	.
16DD/	16A/ 16B	.	.	.	.	.	.	.	.	.	.	.	.	.	.	.	.	.	.
16D/JJ	16f#/JJ	.	.	.	.	.	.	.	.	.	.	.	.	.	.	.	.	.	.
=28	=28	=28	=28	=28	=28	=28	=28	=28	=28	=28	=28	=28	=28	=28	=28	=28	=28	=28	=28
!	!LO:TX:t=P:problem=mixed beam	!	!	!	!	!	!	!	!	!	!	!	!	!	!	!	!	!	!
16DD/LL	16A/LL	.	1r	.	.	1r	.	.	1r	.	.	.	1r	.	.	.	1r	.	.
16D/	16f#/	.	.	.	.	.	.	.	.	.	.	.	.	.	.	.	.	.	.
16DD/	16A/	.	.	.	.	.	.	.	.	.	.	.	.	.	.	.	.	.	.
16D/	16f#/JJ	.	.	.	.	.	.	.	.	.	.	.	.	.	.	.	.	.	.
!	!LO:TX:t=P:problem=mixed beam	!	!	!	!	!	!	!	!	!	!	!	!	!	!	!	!	!	!
16DD/	16F#/LL	.	.	.	.	.	.	.	.	.	.	.	.	.	.	.	.	.	.
16D/	16d/	.	.	.	.	.	.	.	.	.	.	.	.	.	.	.	.	.	.
16DD/	16F#/	.	.	.	.	.	.	.	.	.	.	.	.	.	.	.	.	.	.
16D/JJ	16d/JJ	.	.	.	.	.	.	.	.	.	.	.	.	.	.	.	.	.	.
16DD/LL	16F#/LL	.	.	.	.	.	.	.	.	.	.	.	.	.	.	.	.	.	.
16D/	16A/	.	.	.	.	.	.	.	.	.	.	.	.	.	.	.	.	.	.
16DD/	16F#/	.	.	.	.	.	.	.	.	.	.	.	.	.	.	.	.	.	.
16D/	16A/JJ	.	.	.	.	.	.	.	.	.	.	.	.	.	.	.	.	.	.
16DD/	16AA/LL	.	.	.	.	.	.	.	.	.	.	.	.	.	.	.	.	.	.
16D/	16F#/	.	.	.	.	.	.	.	.	.	.	.	.	.	.	.	.	.	.
16DD/	16AA/	.	.	.	.	.	.	.	.	.	.	.	.	.	.	.	.	.	.
16D/JJ	16F#/JJ	.	.	.	.	.	.	.	.	.	.	.	.	.	.	.	.	.	.
=29	=29	=29	=29	=29	=29	=29	=29	=29	=29	=29	=29	=29	=29	=29	=29	=29	=29	=29	=29
1DD;	1D;)	.	1r;	.	.	1r;	.	.	1r;	.	.	.	1r;	.	.	.	1r;	.	.
==	==	==	==	==	==	==	==	==	==	==	==	==	==	==	==	==	==	==	==
*-	*-	*-	*-	*-	*-	*-	*-	*-	*-	*-	*-	*-	*-	*-	*-	*-	*-	*-	*-
!!!system-decoration: s1[(s2,s3,s4,s5)][(s6,s7)]
!!!ENC: Krzysztof Stępień
!!!END: 2021-09-10
